X:259
T:Young Edwin in the Lowlands
%%VWML:SBG-1-2-268-0
F:http://www.vwml.org/record/SBG/1/2/268
Z:Original Sibelius transcriptions by M. & S. Graebe
M:4/4
I:linebreak $
K:F
V:1 treble nm="P1"
V:1
 C/ | F/F/F/G/ | A/G/F3/4 C/4 | F/F/F/E/ | F3/2 C/ | F F G/F/ D |$ F E C F | F3 A | d c B A | %9
 c B G3/2 c/ | B A G F | E F G C |$ G A B/A/ G | F G A A | c c d/c/ B | A B c F | G A G F/E/ | %17
 F3 x | %18

